X: 12
T: Masters In This Hall (part C)
M: 6/8
K: F
L: 1/8
D3 A,3 | A,3 B,3 | A,3 A,3 | (A,2 G,) (A,2 A,) | D3 A,3 | A,3 B,3 |
A,3 A,3 | D6 | D3 G,3 | A,3 E3 | D3 G,3 | A,3 (D2 D) |
D3 ^C3 | D3 G,3 | A,3 A,3 | D6 |  D3 G,3 | A,3 E3 | D3 G,3 |
A,3 (D2 D) | D3 ^C3 | D3 G,3 |  A,3 A,3 | D6 |]

